X: 45
T:Oriental hornpipe
M:2/4
L:1/16
Z:abc by Bruce Osborne - bosborne@kos.net
K:A
(3EFG|AGAE CEAc|e_e=ec Ac=ea|faea daca|BABc dBGE|!
AGAE CEAc|e_e=ec Ac=ea|(3fga ed cBAG|A2c2 A2:|!
|:EG|BABG EGBc|dcdB GBed|cBcA EAcd|e_e=ef =e2fg|!
agae fdBG|ABcd eaec|dfed cBAG|A2c2 A2:|!
